_includes/icons/color-color-palette.svg

<svg fill="#666" height="50" viewBox="0 0 48 48" width="50" xmlns="http://www.w3.org/2000/svg"><path d="m6 43v-10h37c.552 0 1 .448 1 1v8c0 .552-.448 1-1 1z" fill="#d7dfe2"/><path d="m33.162 33h-3.934l-16.939 10h3.934z" fill="#b0bec5"/><path d="m36 43v-10h7c.552 0 1 .448 1 1v8c0 .552-.448 1-1 1z" fill="#8c9eff"/><path d="m25 34h10v8h-10z" fill="#5c6bc0" transform="matrix(0 1 -1 0 68 8)"/><path d="m26 37.228 7.162-4.228h-3.934l-3.228 1.906z" fill="#3f51b5"/><path d="m15 34h10v8h-10z" fill="#303f9f" transform="matrix(0 1 -1 0 58 18)"/><path d="m24 36.086-8 4.723v2.191h.223l7.777-4.591z" fill="#283593"/><path d="m41.861 24.381-4.067-6.889c-.281-.476-.894-.633-1.37-.353l-30.424 17.961v3.284l2.725 4.616h3.564l29.219-17.25c.476-.28.634-.894.353-1.369z" fill="#d7dfe2"/><path d="m28.875 21.596-3.55 2.095-10.433 17.773 3.549-2.096z" fill="#b0bec5"/><path d="m35.48 29.309-5.084-8.611 6.028-3.559c.476-.281 1.089-.123 1.37.353l4.067 6.889c.281.476.123 1.089-.353 1.37z" fill="#81c784"/><path d="m22.772 24.054h10v8h-10z" fill="#43a047" transform="matrix(.50839529 .86112382 -.86112382 .50839529 37.812166 -10.124022)"/><path d="m14.16 29.137h10v8h-10z" fill="#2e7d32" transform="matrix(.50839529 .86112382 -.86112382 .50839529 37.95642 -.208705)"/><path d="m14.16 29.137h10v8h-10z" fill="#2e7d32" transform="matrix(.50839529 .86112382 -.86112382 .50839529 37.95642 -.208705)"/><path d="m31.506 11.188-6.899-4.05c-.476-.28-1.089-.12-1.369.356l-17.238 29.364v3.421l4.636 2.721h3.354l17.872-30.443c.28-.477.12-1.089-.356-1.369z" fill="#d7dfe2"/><path d="m21.787 29.719-4.632 7.89 1.103 1.868.183-.109 4.509-7.68z" fill="#1b5e20"/><path d="m28.74 21.826-.066-.112-3.349 1.977-2.38 4.055 1.163 1.97z" fill="#388e3c"/><path d="m28.318 18.593-8.624-5.063 3.544-6.037c.28-.476.892-.636 1.369-.356l6.899 4.05c.476.28.636.892.356 1.369z" fill="#ffd740"/><path d="m15.969 17.236h10v8h-10z" fill="#ffc400" transform="matrix(.86237232 .5062746 -.5062746 .86237232 13.636518 -7.693042)"/><path d="m10.906 25.86h10v8h-10z" fill="#ff9800" transform="matrix(.86237232 .5062746 -.5062746 .86237232 17.305315 -3.94301)"/><path d="m16 43h-10v-37c0-.552.448-1 1-1h8c.552 0 1 .448 1 1z" fill="#d7dfe2"/><path d="m16 13h-10v-7c0-.552.448-1 1-1h8c.552 0 1 .448 1 1z" fill="#ff8a80"/><path d="m6 15h10v8h-10z" fill="#ff5252"/><path d="m6 25h10v8h-10z" fill="#d50000"/><circle cx="11" cy="38" fill="#455a64" r="1"/><path d="m16 35.652v5.157l2.258-1.332z" fill="#90a4ae"/><path d="m16 34.553v5.023l2.193-3.735z" fill="#b0bec5"/><path d="m16 22.957v2.32l2 1.174v-2.319z" fill="#b0bec5"/><path d="m16 22.957 2 1.175v-7.715l-2 3.407z" fill="#ffab00"/><path d="m16 34.553 2 1.174v-9.276l-2-1.174z" fill="#f57c00"/></svg>

<svg xmlns="http://www.w3.org/2000/svg" viewBox="0 0 48 48" width="50" height="50" fill="#666"><path d="M6,43V33h37c0.552,0,1,0.448,1,1v8c0,0.552-0.448,1-1,1H6z" fill="#d7dfe2"/><path fill="#b0bec5" d="M33.162 33L29.228 33 12.289 43 16.223 43z"/><path d="M36,43V33h7c0.552,0,1,0.448,1,1v8c0,0.552-0.448,1-1,1H36z" fill="#8c9eff"/><path transform="rotate(90 30 38)" fill="#5c6bc0" d="M25 34H35V42H25z"/><path fill="#3f51b5" d="M26 37.228L33.162 33 29.228 33 26 34.906z"/><path transform="rotate(90 20 38)" fill="#303f9f" d="M15 34H25V42H15z"/><path fill="#283593" d="M24 36.086L16 40.809 16 43 16.223 43 24 38.409z"/><path d="M41.861,24.381l-4.067-6.889c-0.281-0.476-0.894-0.633-1.37-0.353L6,35.1v3.284L8.725,43h3.564 l29.219-17.25C41.984,25.47,42.142,24.856,41.861,24.381z" fill="#d7dfe2"/><path fill="#b0bec5" d="M28.875 21.596L25.325 23.691 14.892 41.464 18.441 39.368z"/><path d="M35.48,29.309l-5.084-8.611l6.028-3.559c0.476-0.281,1.089-0.123,1.37,0.353l4.067,6.889 c0.281,0.476,0.123,1.089-0.353,1.37L35.48,29.309z" fill="#81c784"/><path transform="rotate(59.443 27.773 28.055)" fill="#43a047" d="M22.772 24.054H32.772V32.054H22.772z"/><path transform="rotate(59.443 19.161 33.139)" fill="#2e7d32" d="M14.16 29.137H24.16V37.137H14.16z"/><path transform="rotate(59.443 19.161 33.139)" fill="#2e7d32" d="M14.16 29.137H24.16V37.137H14.16z"/><path d="M31.506,11.188l-6.899-4.05c-0.476-0.28-1.089-0.12-1.369,0.356L6,36.858v3.421L10.636,43h3.354 l17.872-30.443C32.142,12.08,31.982,11.468,31.506,11.188z" fill="#d7dfe2"/><path fill="#1b5e20" d="M21.787 29.719L17.155 37.609 18.258 39.477 18.441 39.368 22.95 31.688z"/><path fill="#388e3c" d="M28.74 21.826L28.674 21.714 25.325 23.691 22.945 27.746 24.108 29.716z"/><path d="M28.318,18.593l-8.624-5.063l3.544-6.037c0.28-0.476,0.892-0.636,1.369-0.356l6.899,4.05 c0.476,0.28,0.636,0.892,0.356,1.369L28.318,18.593z" fill="#ffd740"/><path transform="rotate(30.416 20.968 21.235)" fill="#ffc400" d="M15.969 17.236H25.969V25.236H15.969z"/><path transform="rotate(30.416 15.905 29.858)" fill="#ff9800" d="M10.906 25.86H20.906V33.86H10.906z"/><path d="M16,43H6V6c0-0.552,0.448-1,1-1h8c0.552,0,1,0.448,1,1V43z" fill="#d7dfe2"/><path d="M16,13H6V6c0-0.552,0.448-1,1-1h8c0.552,0,1,0.448,1,1V13z" fill="#ff8a80"/><path fill="#ff5252" d="M6 15H16V23H6z"/><path fill="#d50000" d="M6 25H16V33H6z"/><circle cx="11" cy="38" r="1" fill="#455a64"/><path fill="#90a4ae" d="M16 35.652L16 40.809 18.258 39.477z"/><path fill="#b0bec5" d="M16 34.553L16 39.576 18.193 35.841z"/><path fill="#b0bec5" d="M16 22.957L16 25.277 18 26.451 18 24.132z"/><path fill="#ffab00" d="M16 22.957L18 24.132 18 16.417 16 19.824z"/><path fill="#f57c00" d="M16 34.553L18 35.727 18 26.451 16 25.277z"/></svg>
